assets/svg/logo-imdb.svg

<svg enable-background="new 0 0 41 18.415" height="18.415" viewBox="0 0 41 18.415" width="41" xmlns="http://www.w3.org/2000/svg" xmlns:xlink="http://www.w3.org/1999/xlink"><linearGradient id="a" gradientUnits="userSpaceOnUse" x1="20.5" x2="20.5" y1="0" y2="18.415"><stop offset="0" stop-color="#c8aa31"/><stop offset="1" stop-color="#ecd939"/></linearGradient><path d="m41 17.111c0 .72-.584 1.304-1.304 1.304h-38.392c-.721 0-1.304-.584-1.304-1.304v-15.807c0-.72.583-1.304 1.304-1.304h38.392c.72 0 1.304.584 1.304 1.304z" fill="url(#a)"/><path d="m7.786 15.452h-3.098v-12.64h3.097v12.64zm11.485 0h-2.643v-7.095l-1.279 7.095h-1.913l-1.312-7.095v7.095h-2.79v-12.64h3.986l1.036 5.963.718-5.963h4.197zm1.635 0v-12.64h3.465c2.063 0 2.564.204 3.154.612.589.409.884 1.036.884 1.882v7.651c0 .788-.275 1.4-.827 1.838-.55.438-1.213.657-3.193.657zm4.178-2.652v-7.412c0-.616-.668-.559-1.197-.559v8.49c.529 0 1.197.079 1.197-.519zm7.287 1.993c-.217-.094-.411.659-.411.659h-2.558v-12.64h3.168v2.894c.319-.359 1.209-.917 2.073-.877s1.992.678 1.913 1.738v7.351c0 .517-.228.925-.681 1.225-.363.158-.674.208-1.432.208s-1.856-.464-2.072-.558zm1.069-1.524.002-6.367c0-.311-.144-.467-.432-.467-.293 0-.44.149-.44.45l-.002 6.384c0 .312.147.528.44.528.288 0 .432-.217.432-.528z" fill="#231f1e"/></svg>

<?xml version="1.0" encoding="utf-8"?>
<!-- Generator: Adobe Illustrator 16.0.0, SVG Export Plug-In . SVG Version: 6.00 Build 0)  -->
<!DOCTYPE svg PUBLIC "-//W3C//DTD SVG 1.1//EN" "http://www.w3.org/Graphics/SVG/1.1/DTD/svg11.dtd">
<svg version="1.1" id="Layer_1" xmlns="http://www.w3.org/2000/svg" xmlns:xlink="http://www.w3.org/1999/xlink" x="0px" y="0px"
	 width="41px" height="18.415px" viewBox="0 0 41 18.415" enable-background="new 0 0 41 18.415" xml:space="preserve">
<g>
	<linearGradient id="SVGID_1_" gradientUnits="userSpaceOnUse" x1="20.5" y1="0" x2="20.5" y2="18.415">
		<stop  offset="0" style="stop-color:#C8AA31"/>
		<stop  offset="1" style="stop-color:#ECD939"/>
	</linearGradient>
	<path fill="url(#SVGID_1_)" d="M41,17.111c0,0.72-0.584,1.304-1.304,1.304H1.304C0.583,18.415,0,17.831,0,17.111V1.304
		C0,0.584,0.583,0,1.304,0h38.392C40.416,0,41,0.584,41,1.304V17.111z"/>
	<path fill="#231F1E" d="M7.786,15.452H4.688V2.812h3.097V15.452z M19.271,15.452h-2.643V8.357l-1.279,7.095h-1.913l-1.312-7.095
		v7.095h-2.79V2.812h3.986l1.036,5.963l0.718-5.963h4.197V15.452z M20.906,15.452V2.812h3.465c2.063,0,2.564,0.204,3.154,0.612
		c0.589,0.409,0.884,1.036,0.884,1.882v7.651c0,0.788-0.275,1.4-0.827,1.838c-0.55,0.438-1.213,0.657-3.193,0.657H20.906z
		 M25.084,12.8V5.388c0-0.616-0.668-0.559-1.197-0.559v8.49C24.416,13.319,25.084,13.398,25.084,12.8z M32.371,14.793
		c-0.217-0.094-0.411,0.659-0.411,0.659h-2.558V2.812h3.168v2.894c0.319-0.359,1.209-0.917,2.073-0.877
		c0.864,0.04,1.992,0.678,1.913,1.738v7.351c0,0.517-0.228,0.925-0.681,1.225c-0.363,0.158-0.674,0.208-1.432,0.208
		S32.587,14.887,32.371,14.793z M33.44,13.269l0.002-6.367c0-0.311-0.144-0.467-0.432-0.467c-0.293,0-0.44,0.149-0.44,0.45
		l-0.002,6.384c0,0.312,0.147,0.528,0.44,0.528C33.296,13.797,33.44,13.58,33.44,13.269z"/>
</g>
</svg>
